projects/vfh1/img/icons-service/Kids.svg

<svg width="33" height="28" viewBox="0 0 33 28" fill="none" xmlns="http://www.w3.org/2000/svg">
<path d="M19.75 21.13C18.92 21.13 18.25 20.29 18.25 19.25C18.25 18.22 18.92 17.38 19.75 17.38C20.58 17.38 21.25 18.22 21.25 19.25C21.25 20.29 20.58 21.13 19.75 21.13ZM16 13.25C14.76 13.25 13.75 12.41 13.75 11.38C13.75 10.34 14.76 9.5 16 9.5C17.24 9.5 18.25 10.34 18.25 11.38C18.25 12.41 17.24 13.25 16 13.25ZM12.25 21.13C11.42 21.13 10.75 20.29 10.75 19.25C10.75 18.22 11.42 17.38 12.25 17.38C13.08 17.38 13.75 18.22 13.75 19.25C13.75 20.29 13.08 21.13 12.25 21.13ZM16 10.25C16.41 10.25 16.75 10.59 16.75 11C16.75 11.41 16.41 11.75 16 11.75C15.59 11.75 15.25 11.41 15.25 11C15.25 10.59 15.59 10.25 16 10.25ZM22.75 14C22.43 14 22.12 14.07 21.84 14.2C21.36 13.59 20.71 13.07 19.93 12.67C20.5 11.87 20.84 10.9 20.84 9.85V9.79C21.93 9.56 22.75 8.59 22.75 7.42C22.75 6.09 21.66 5 20.33 5C19.64 5 19 5.29 18.58 5.75C17.8086 5.26019 16.9138 5.00007 16 5.00007C15.0863 5.00007 14.1914 5.26019 13.42 5.75C13 5.29 12.36 5 11.67 5C10.34 5 9.25001 6.09 9.25001 7.42C9.25001 8.58 10.07 9.55 11.15 9.79V9.85C11.15 10.9 11.5 11.88 12.06 12.67C11.29 13.07 10.64 13.59 10.16 14.2C9.81828 14.0461 9.44338 13.9803 9.06965 14.0088C8.69593 14.0373 8.33534 14.1592 8.0209 14.3631C7.70646 14.5671 7.44824 14.8468 7.26988 15.1764C7.09152 15.5061 6.99873 15.8752 7.00001 16.25C7.00001 17.5 8.00001 18.5 9.25001 18.5H9.31001C9.27001 18.74 9.25001 19 9.25001 19.25C9.25001 21.32 10.59 23 12.25 23C13.26 23 14.15 22.37 14.7 21.41C15.12 21.47 15.55 21.5 16 21.5C16.45 21.5 16.88 21.47 17.3 21.41C17.85 22.37 18.74 23 19.75 23C21.41 23 22.75 21.32 22.75 19.25C22.75 19 22.73 18.74 22.69 18.5H22.75C24 18.5 25 17.5 25 16.25C25 15 24 14 22.75 14Z" fill="#42474D"/>
</svg>

<svg width="33" height="28" fill="none" xmlns="http://www.w3.org/2000/svg"><path d="M19.75 21.13c-.83 0-1.5-.84-1.5-1.88 0-1.03.67-1.87 1.5-1.87s1.5.84 1.5 1.87c0 1.04-.67 1.88-1.5 1.88zM16 13.25c-1.24 0-2.25-.84-2.25-1.87 0-1.04 1.01-1.88 2.25-1.88s2.25.84 2.25 1.88c0 1.03-1.01 1.87-2.25 1.87zm-3.75 7.88c-.83 0-1.5-.84-1.5-1.88 0-1.03.67-1.87 1.5-1.87s1.5.84 1.5 1.87c0 1.04-.67 1.88-1.5 1.88zM16 10.25c.41 0 .75.34.75.75s-.34.75-.75.75-.75-.34-.75-.75.34-.75.75-.75zM22.75 14c-.32 0-.63.07-.91.2-.48-.61-1.13-1.13-1.91-1.53.57-.8.91-1.77.91-2.82v-.06c1.09-.23 1.91-1.2 1.91-2.37 0-1.33-1.09-2.42-2.42-2.42-.69 0-1.33.29-1.75.75a4.813 4.813 0 00-5.16 0C13 5.29 12.36 5 11.67 5c-1.33 0-2.42 1.09-2.42 2.42 0 1.16.82 2.13 1.9 2.37v.06c0 1.05.35 2.03.91 2.82-.77.4-1.42.92-1.9 1.53A2.24 2.24 0 007 16.25c0 1.25 1 2.25 2.25 2.25h.06c-.04.24-.06.5-.06.75 0 2.07 1.34 3.75 3 3.75 1.01 0 1.9-.63 2.45-1.59.42.06.85.09 1.3.09.45 0 .88-.03 1.3-.09.55.96 1.44 1.59 2.45 1.59 1.66 0 3-1.68 3-3.75 0-.25-.02-.51-.06-.75h.06c1.25 0 2.25-1 2.25-2.25S24 14 22.75 14z" fill="#42474D"/></svg>
